X:4381
T:Morpeth Rant. JMT045
O:england
M:4/4
L:1/8
S:J,Moore,Tyneside,1841.(33)
R:Rant
A:Northumbria
H:184
K:G
D-F|G2 DC B,G,B,D|ECEG FDFA|BGcA dBAG|F2 A2 A(cBA)|
G2 .D.C B,G,B,D|ECEG FDFA| BGcA dBAG| D2 G2 G2:|
|:df| gdBG FAce|dBAG GFED| cecA BdBG| F2 D2 D2 G-F|
ECEG cBAG| FDFA dcBA| Bgfe dcBA| B2 G2 G2 :| ]


